assets/img/projects.svg

<svg xmlns="http://www.w3.org/2000/svg" style="margin:auto;background:0 0;display:block;shape-rendering:auto" width="143" height="42" preserveAspectRatio="xMidYMid"><style>@keyframes breath-5f8e0724-d5da-49e6-9b38-d161380cbacc{0%{animation-timing-function:cubic-bezier(.9647,.2413,-.0705,.7911);transform:scale(.9099999999999999)}51%{animation-timing-function:cubic-bezier(.9226,.2631,-.0308,.7628);transform:scale(1.02994)}to{transform:scale(.9099999999999999)}}</style><g style="transform-origin:71.5px 21px;transform:scale(1)"><g style="transform:scale(.91);transform-origin:-56.645px -2.9708px;animation:1s linear -.586667s infinite normal forwards running breath-5f8e0724-d5da-49e6-9b38-d161380cbacc"><path d="M.54-24.52v-.68h10.58q5.44 0 8.1 1.57 2.67 1.56 2.67 5.59 0 4.47-3.24 6.16-3.03 1.55-8.46 1.55H9.9v9.65h4.5V0H.54v-.68h2.34v-23.84H.54zm10.33 0H9.9v13.5h.76q2.16 0 2.98-1.47.83-1.48.83-4.79v-1.73q0-3.06-.77-4.28-.78-1.23-2.83-1.23" fill="#ff0d0d" stroke-width="none" transform="translate(3.64 30.63)" style="fill:#ff0d0d" class="path"/></g><g style="transform:scale(.91);transform-origin:-36.02px .879201px;animation:1s linear -.513333s infinite normal forwards running breath-5f8e0724-d5da-49e6-9b38-d161380cbacc"><path d="M35.21-16.13q-1.33 0-2.34 1.73-1.01 1.73-1.01 4.1v9.65h2.56V0H23.18v-.65h1.98v-15.84h-1.98v-.65h8.68v3.46q.47-1.84 1.8-2.83t3.02-.99q1.7 0 2.76.96 1.06.95 1.06 2.7 0 1.74-.79 2.68-.79.94-2.43.94-1.64 0-2.41-1.08-.78-1.08-.2-2.99h1.29q.9-1.84-.75-1.84" fill="#ff0d0d" stroke-width="none" transform="translate(3.64 30.63)" style="fill:#00e2ff" class="path"/></g><g style="transform:scale(.91);transform-origin:-17.625px 1.0592px;animation:1s linear -.44s infinite normal forwards running breath-5f8e0724-d5da-49e6-9b38-d161380cbacc"><path d="M52.45-7.09v-3.06q0-3.49-.38-5.1-.37-1.6-1.74-1.6-.79 0-1.28.45t-.7 1.5q-.33 1.62-.33 4.93v2.81q0 3.92.24 4.71.23.79.48 1.3.4.86 1.55.86 1.41 0 1.84-1.62.32-1.15.32-5.18zM50.22.36q-4.5 0-6.8-2.3-2.31-2.31-2.31-6.61 0-4.3 2.47-6.62 2.46-2.33 6.93-2.33 4.46 0 6.66 2.15 2.19 2.14 2.19 6.53 0 9.18-9.14 9.18" fill="#ff0d0d" stroke-width="none" transform="translate(3.64 30.63)" style="fill:#0eff00" class="path"/></g><g style="transform:scale(.91);transform-origin:-6.03002px 5.5592px;animation:1s linear -.366667s infinite normal forwards running breath-5f8e0724-d5da-49e6-9b38-d161380cbacc"><path d="M60.01-17.14h9.04V-3.1q0 5.91-2.04 9Q64.98 9 60.37 9 57.38 9 56 7.81q-1.39-1.19-1.39-2.77t.94-2.43q.93-.85 2.34-.85 1.4 0 2.1.78.71.77.71 1.71 0 .93-.22 1.8h-1.37q-.57.97-.16 1.65.41.69 1.51.69t1.5-1.24q.39-1.25.39-5.13v-18.51h-2.34v-.65" fill="#ff0d0d" stroke-width="none" transform="translate(3.64 30.63)" style="fill:#ffb900" class="path"/></g><g style="transform:scale(.91);transform-origin:-2.14002px -13.3408px;animation:1s linear -.293333s infinite normal forwards running breath-5f8e0724-d5da-49e6-9b38-d161380cbacc"><path d="M65.63-19.62q-1.91 0-2.72-.97-.81-.97-.81-2.41 0-1.44.88-2.38t2.68-.94q1.8 0 2.74.85.94.85.94 2.41 0 1.57-.9 2.5-.9.94-2.81.94" fill="#ff0d0d" stroke-width="none" transform="translate(3.64 30.63)" style="fill:#f200ff" class="path"/></g><g style="transform:scale(.91);transform-origin:12.446px 1.0592px;animation:1s linear -.22s infinite normal forwards running breath-5f8e0724-d5da-49e6-9b38-d161380cbacc"><path d="M81.04.36q-4.65 0-6.97-2.39-2.32-2.4-2.32-6.66 0-4.27 2.61-6.54Q76.97-17.5 81-17.5q8.17 0 7.85 8.21H78.7v1.41q0 3.52.9 5.32.9 1.8 3.13 1.8 4.17 0 5.47-4.46l.65.11q-.69 2.59-2.47 4.03Q84.6.36 81.04.36zm-2.31-12.13v1.76h3.71v-1.76q0-2.92-.34-3.98t-1.37-1.06q-1.03 0-1.51 1.13-.49 1.14-.49 3.91" fill="#ff0d0d" stroke-width="none" transform="translate(3.64 30.63)" style="fill:#ff0d0d" class="path"/></g><g style="transform:scale(.91);transform-origin:30.615px 1.0592px;animation:1s linear -.146667s infinite normal forwards running breath-5f8e0724-d5da-49e6-9b38-d161380cbacc"><path d="M100.22-16.85q-1.58 0-2.26 1.73-.69 1.73-.69 5.72v1.88q0 3.56.79 5.11.8 1.55 2.92 1.55t3.38-1.44q1.26-1.44 1.62-3.28l.65.07q-.68 3.1-2.52 4.47-1.87 1.4-5.15 1.4-4.17 0-6.4-2.25-2.24-2.25-2.24-6.59t2.54-6.68q2.54-2.34 7.08-2.34 3.2 0 4.89 1.25 1.69 1.24 1.69 3.11 0 1.87-.81 2.74-.81.86-2.23.86t-2.28-.76q-.87-.75-.87-2.23 0-.65.18-1.29h1.19q.25-.72.25-1.3 0-1.73-1.73-1.73" fill="#ff0d0d" stroke-width="none" transform="translate(3.64 30.63)" style="fill:#00e2ff" class="path"/></g><g style="transform:scale(.91);transform-origin:46.495px -1.9108px;animation:1s linear -.0733333s infinite normal forwards running breath-5f8e0724-d5da-49e6-9b38-d161380cbacc"><path d="M109.33-5.15v-11.34h-1.98v-.65h1.98v-4.64l6.7-1.66v6.3h4.68v.65h-4.68v12.13q0 1.7.34 2.49.34.79 1.42.79 1.08 0 1.89-1.08.81-1.08 1.06-2.95l.62.07q-.29 2.48-1.59 3.94-1.29 1.46-4.28 1.46t-4.57-1.19q-1.59-1.19-1.59-4.32" fill="#ff0d0d" stroke-width="none" transform="translate(3.64 30.63)" style="fill:#0eff00" class="path"/></g><g style="transform:scale(.91);transform-origin:61.54px 1.0242px;animation:1s linear 0s infinite normal forwards running breath-5f8e0724-d5da-49e6-9b38-d161380cbacc"><path d="M122.98.36h-.44v-6.44h.44q.93 3.13 2.52 4.39 1.58 1.26 3.96 1.26 3.67 0 3.67-2.34 0-1.01-.9-1.51-1.41-.8-3.6-1.23-2.45-.65-4.11-1.73-1.98-1.29-1.98-4.1 0-2.81 1.73-4.48 1.73-1.68 4.61-1.68 1.76 0 3.64.83.68.29 1.04.29t.61-.25q.25-.25.61-.94h.4v5.51h-.43q-1.84-4.68-5.69-4.68-1.69 0-2.52.59-.83.6-.83 1.5 0 .54.25.84.26.31.4.45.14.15.47.31.32.16.54.25.21.09.66.24.45.14.67.18 2.45.61 3.53 1.06 1.08.45 2.05 1.1 1.98 1.36 1.98 4.41 0 3.04-1.8 4.6-1.8 1.57-4.93 1.57-2.23 0-4.32-1.04-.43-.29-.69-.29-.79 0-1.54 1.33" fill="#ff0d0d" stroke-width="none" transform="translate(3.64 30.63)" style="fill:#ffb900" class="path"/></g></g></svg>

<?xml version="1.0" encoding="utf-8"?>
<svg xmlns="http://www.w3.org/2000/svg" style="margin: auto; background: none; display: block; shape-rendering: auto;" width="143" height="42" preserveAspectRatio="xMidYMid">
<style type="text/css">
  text {
    text-anchor: middle; font-size: 36px; opacity: 0;
  }
</style>
<g style="transform-origin:71.5px 21px;transform:scale(1)">
<g transform="translate(71.5,21)">
  <g transform="translate(0,0)"><g class="path" style="transform: scale(0.91); transform-origin: -56.645px -2.9708px; animation: 1s linear -0.586667s infinite normal forwards running breath-5f8e0724-d5da-49e6-9b38-d161380cbacc;"><path d="M0.54-24.52L0.54-25.20L11.12-25.20L11.12-25.20Q16.56-25.20 19.22-23.63L19.22-23.63L19.22-23.63Q21.89-22.07 21.89-18.04L21.89-18.04L21.89-18.04Q21.89-13.57 18.65-11.88L18.65-11.88L18.65-11.88Q15.62-10.33 10.19-10.33L10.19-10.33L9.90-10.33L9.90-0.68L14.40-0.68L14.40 0L0.54 0L0.54-0.68L2.88-0.68L2.88-24.52L0.54-24.52zM10.87-24.52L9.90-24.52L9.90-11.02L10.66-11.02L10.66-11.02Q12.82-11.02 13.64-12.49L13.64-12.49L13.64-12.49Q14.47-13.97 14.47-17.28L14.47-17.28L14.47-19.01L14.47-19.01Q14.47-22.07 13.70-23.29L13.70-23.29L13.70-23.29Q12.92-24.52 10.87-24.52L10.87-24.52" fill="#ff0d0d" stroke="none" stroke-width="none" transform="translate(-67.86001586914062,9.629200943840877)" style="fill: rgb(255, 13, 13);"></path></g><g class="path" style="transform: scale(0.91); transform-origin: -36.02px 0.879201px; animation: 1s linear -0.513333s infinite normal forwards running breath-5f8e0724-d5da-49e6-9b38-d161380cbacc;"><path d="M35.21-16.13L35.21-16.13L35.21-16.13Q33.88-16.13 32.87-14.40L32.87-14.40L32.87-14.40Q31.86-12.67 31.86-10.30L31.86-10.30L31.86-0.65L34.42-0.65L34.42 0L23.18 0L23.18-0.65L25.16-0.65L25.16-16.49L23.18-16.49L23.18-17.14L31.86-17.14L31.86-13.68L31.86-13.68Q32.33-15.52 33.66-16.51L33.66-16.51L33.66-16.51Q34.99-17.50 36.68-17.50L36.68-17.50L36.68-17.50Q38.38-17.50 39.44-16.54L39.44-16.54L39.44-16.54Q40.50-15.59 40.50-13.84L40.50-13.84L40.50-13.84Q40.50-12.10 39.71-11.16L39.71-11.16L39.71-11.16Q38.92-10.22 37.28-10.22L37.28-10.22L37.28-10.22Q35.64-10.22 34.87-11.30L34.87-11.30L34.87-11.30Q34.09-12.38 34.67-14.29L34.67-14.29L35.96-14.29L35.96-14.29Q36.86-16.13 35.21-16.13" fill="#ff0d0d" stroke="none" stroke-width="none" transform="translate(-67.86001586914062,9.629200943840877)" style="fill: rgb(0, 226, 255);"></path></g><g class="path" style="transform: scale(0.91); transform-origin: -17.625px 1.0592px; animation: 1s linear -0.44s infinite normal forwards running breath-5f8e0724-d5da-49e6-9b38-d161380cbacc;"><path d="M52.45-7.09L52.45-7.09L52.45-10.15L52.45-10.15Q52.45-13.64 52.07-15.25L52.07-15.25L52.07-15.25Q51.70-16.85 50.33-16.85L50.33-16.85L50.33-16.85Q49.54-16.85 49.05-16.40L49.05-16.40L49.05-16.40Q48.56-15.95 48.35-14.90L48.35-14.90L48.35-14.90Q48.02-13.28 48.02-9.97L48.02-9.97L48.02-7.16L48.02-7.16Q48.02-3.24 48.26-2.45L48.26-2.45L48.26-2.45Q48.49-1.66 48.74-1.15L48.74-1.15L48.74-1.15Q49.14-0.29 50.29-0.29L50.29-0.29L50.29-0.29Q51.70-0.29 52.13-1.91L52.13-1.91L52.13-1.91Q52.45-3.06 52.45-7.09zM50.22 0.36L50.22 0.36Q45.72 0.36 43.42-1.94L43.42-1.94L43.42-1.94Q41.11-4.25 41.11-8.55L41.11-8.55L41.11-8.55Q41.11-12.85 43.58-15.17L43.58-15.17L43.58-15.17Q46.04-17.50 50.51-17.50L50.51-17.50L50.51-17.50Q54.97-17.50 57.17-15.35L57.17-15.35L57.17-15.35Q59.36-13.21 59.36-8.82L59.36-8.82L59.36-8.82Q59.36 0.36 50.22 0.36L50.22 0.36" fill="#ff0d0d" stroke="none" stroke-width="none" transform="translate(-67.86001586914062,9.629200943840877)" style="fill: rgb(14, 255, 0);"></path></g><g class="path" style="transform: scale(0.91); transform-origin: -6.03002px 5.5592px; animation: 1s linear -0.366667s infinite normal forwards running breath-5f8e0724-d5da-49e6-9b38-d161380cbacc;"><path d="M60.01-17.14L69.05-17.14L69.05-3.10L69.05-3.10Q69.05 2.81 67.01 5.90L67.01 5.90L67.01 5.90Q64.98 9.00 60.37 9.00L60.37 9.00L60.37 9.00Q57.38 9.00 56.00 7.81L56.00 7.81L56.00 7.81Q54.61 6.62 54.61 5.04L54.61 5.04L54.61 5.04Q54.61 3.46 55.55 2.61L55.55 2.61L55.55 2.61Q56.48 1.76 57.89 1.76L57.89 1.76L57.89 1.76Q59.29 1.76 59.99 2.54L59.99 2.54L59.99 2.54Q60.70 3.31 60.70 4.25L60.70 4.25L60.70 4.25Q60.70 5.18 60.48 6.05L60.48 6.05L59.11 6.05L59.11 6.05Q58.54 7.02 58.95 7.70L58.95 7.70L58.95 7.70Q59.36 8.39 60.46 8.39L60.46 8.39L60.46 8.39Q61.56 8.39 61.96 7.15L61.96 7.15L61.96 7.15Q62.35 5.90 62.35 2.02L62.35 2.02L62.35-16.49L60.01-16.49L60.01-17.14" fill="#ff0d0d" stroke="none" stroke-width="none" transform="translate(-67.86001586914062,9.629200943840877)" style="fill: rgb(255, 185, 0);"></path></g><g class="path" style="transform: scale(0.91); transform-origin: -2.14002px -13.3408px; animation: 1s linear -0.293333s infinite normal forwards running breath-5f8e0724-d5da-49e6-9b38-d161380cbacc;"><path d="M65.63-19.62L65.63-19.62L65.63-19.62Q63.72-19.62 62.91-20.59L62.91-20.59L62.91-20.59Q62.10-21.56 62.10-23.00L62.10-23.00L62.10-23.00Q62.10-24.44 62.98-25.38L62.98-25.38L62.98-25.38Q63.86-26.32 65.66-26.32L65.66-26.32L65.66-26.32Q67.46-26.32 68.40-25.47L68.40-25.47L68.40-25.47Q69.34-24.62 69.34-23.06L69.34-23.06L69.34-23.06Q69.34-21.49 68.44-20.56L68.44-20.56L68.44-20.56Q67.54-19.62 65.63-19.62" fill="#ff0d0d" stroke="none" stroke-width="none" transform="translate(-67.86001586914062,9.629200943840877)" style="fill: rgb(242, 0, 255);"></path></g><g class="path" style="transform: scale(0.91); transform-origin: 12.446px 1.0592px; animation: 1s linear -0.22s infinite normal forwards running breath-5f8e0724-d5da-49e6-9b38-d161380cbacc;"><path d="M81.04 0.36L81.04 0.36Q76.39 0.36 74.07-2.03L74.07-2.03L74.07-2.03Q71.75-4.43 71.75-8.69L71.75-8.69L71.75-8.69Q71.75-12.96 74.36-15.23L74.36-15.23L74.36-15.23Q76.97-17.50 81.00-17.50L81.00-17.50L81.00-17.50Q89.17-17.50 88.85-9.29L88.85-9.29L78.70-9.29L78.70-7.88L78.70-7.88Q78.70-4.36 79.60-2.56L79.60-2.56L79.60-2.56Q80.50-0.76 82.73-0.76L82.73-0.76L82.73-0.76Q86.90-0.76 88.20-5.22L88.20-5.22L88.85-5.11L88.85-5.11Q88.16-2.52 86.38-1.08L86.38-1.08L86.38-1.08Q84.60 0.36 81.04 0.36L81.04 0.36zM78.73-11.77L78.73-10.01L82.44-10.01L82.44-11.77L82.44-11.77Q82.44-14.69 82.10-15.75L82.10-15.75L82.10-15.75Q81.76-16.81 80.73-16.81L80.73-16.81L80.73-16.81Q79.70-16.81 79.22-15.68L79.22-15.68L79.22-15.68Q78.73-14.54 78.73-11.77L78.73-11.77" fill="#ff0d0d" stroke="none" stroke-width="none" transform="translate(-67.86001586914062,9.629200943840877)" style="fill: rgb(255, 13, 13);"></path></g><g class="path" style="transform: scale(0.91); transform-origin: 30.615px 1.0592px; animation: 1s linear -0.146667s infinite normal forwards running breath-5f8e0724-d5da-49e6-9b38-d161380cbacc;"><path d="M100.22-16.85L100.22-16.85L100.22-16.85Q98.64-16.85 97.96-15.12L97.96-15.12L97.96-15.12Q97.27-13.39 97.27-9.40L97.27-9.40L97.27-7.52L97.27-7.52Q97.27-3.96 98.06-2.41L98.06-2.41L98.06-2.41Q98.86-0.86 100.98-0.86L100.98-0.86L100.98-0.86Q103.10-0.86 104.36-2.30L104.36-2.30L104.36-2.30Q105.62-3.74 105.98-5.58L105.98-5.58L106.63-5.51L106.63-5.51Q105.95-2.41 104.11-1.04L104.11-1.04L104.11-1.04Q102.24 0.36 98.96 0.36L98.96 0.36L98.96 0.36Q94.79 0.36 92.56-1.89L92.56-1.89L92.56-1.89Q90.32-4.14 90.32-8.48L90.32-8.48L90.32-8.48Q90.32-12.82 92.86-15.16L92.86-15.16L92.86-15.16Q95.40-17.50 99.94-17.50L99.94-17.50L99.94-17.50Q103.14-17.50 104.83-16.25L104.83-16.25L104.83-16.25Q106.52-15.01 106.52-13.14L106.52-13.14L106.52-13.14Q106.52-11.27 105.71-10.40L105.71-10.40L105.71-10.40Q104.90-9.54 103.48-9.54L103.48-9.54L103.48-9.54Q102.06-9.54 101.20-10.30L101.20-10.30L101.20-10.30Q100.33-11.05 100.33-12.53L100.33-12.53L100.33-12.53Q100.33-13.18 100.51-13.82L100.51-13.82L101.70-13.82L101.70-13.82Q101.95-14.54 101.95-15.12L101.95-15.12L101.95-15.12Q101.95-16.85 100.22-16.85" fill="#ff0d0d" stroke="none" stroke-width="none" transform="translate(-67.86001586914062,9.629200943840877)" style="fill: rgb(0, 226, 255);"></path></g><g class="path" style="transform: scale(0.91); transform-origin: 46.495px -1.9108px; animation: 1s linear -0.0733333s infinite normal forwards running breath-5f8e0724-d5da-49e6-9b38-d161380cbacc;"><path d="M109.33-5.15L109.33-5.15L109.33-16.49L107.35-16.49L107.35-17.14L109.33-17.14L109.33-21.78L116.03-23.44L116.03-17.14L120.71-17.14L120.71-16.49L116.03-16.49L116.03-4.36L116.03-4.36Q116.03-2.66 116.37-1.87L116.37-1.87L116.37-1.87Q116.71-1.08 117.79-1.08L117.79-1.08L117.79-1.08Q118.87-1.08 119.68-2.16L119.68-2.16L119.68-2.16Q120.49-3.24 120.74-5.11L120.74-5.11L121.36-5.04L121.36-5.04Q121.07-2.56 119.77-1.10L119.77-1.10L119.77-1.10Q118.48 0.36 115.49 0.36L115.49 0.36L115.49 0.36Q112.50 0.36 110.92-0.83L110.92-0.83L110.92-0.83Q109.33-2.02 109.33-5.15" fill="#ff0d0d" stroke="none" stroke-width="none" transform="translate(-67.86001586914062,9.629200943840877)" style="fill: rgb(14, 255, 0);"></path></g><g class="path" style="transform: scale(0.91); transform-origin: 61.54px 1.0242px; animation: 1s linear 0s infinite normal forwards running breath-5f8e0724-d5da-49e6-9b38-d161380cbacc;"><path d="M122.98 0.36L122.54 0.36L122.54-6.08L122.98-6.08L122.98-6.08Q123.91-2.95 125.50-1.69L125.50-1.69L125.50-1.69Q127.08-0.43 129.46-0.43L129.46-0.43L129.46-0.43Q133.13-0.43 133.13-2.77L133.13-2.77L133.13-2.77Q133.13-3.78 132.23-4.28L132.23-4.28L132.23-4.28Q130.82-5.08 128.63-5.51L128.63-5.51L128.63-5.51Q126.18-6.16 124.52-7.24L124.52-7.24L124.52-7.24Q122.54-8.53 122.54-11.34L122.54-11.34L122.54-11.34Q122.54-14.15 124.27-15.82L124.27-15.82L124.27-15.82Q126.00-17.50 128.88-17.50L128.88-17.50L128.88-17.50Q130.64-17.50 132.52-16.67L132.52-16.67L132.52-16.67Q133.20-16.38 133.56-16.38L133.56-16.38L133.56-16.38Q133.92-16.38 134.17-16.63L134.17-16.63L134.17-16.63Q134.42-16.88 134.78-17.57L134.78-17.57L135.18-17.57L135.18-12.06L134.75-12.06L134.75-12.06Q132.91-16.74 129.06-16.74L129.06-16.74L129.06-16.74Q127.37-16.74 126.54-16.15L126.54-16.15L126.54-16.15Q125.71-15.55 125.71-14.65L125.71-14.65L125.71-14.65Q125.71-14.11 125.96-13.81L125.96-13.81L125.96-13.81Q126.22-13.50 126.36-13.36L126.36-13.36L126.36-13.36Q126.50-13.21 126.83-13.05L126.83-13.05L126.83-13.05Q127.15-12.89 127.37-12.80L127.37-12.80L127.37-12.80Q127.58-12.71 128.03-12.56L128.03-12.56L128.03-12.56Q128.48-12.42 128.70-12.38L128.70-12.38L128.70-12.38Q131.15-11.77 132.23-11.32L132.23-11.32L132.23-11.32Q133.31-10.87 134.28-10.22L134.28-10.22L134.28-10.22Q136.26-8.86 136.26-5.81L136.26-5.81L136.26-5.81Q136.26-2.77 134.46-1.21L134.46-1.21L134.46-1.21Q132.66 0.36 129.53 0.36L129.53 0.36L129.53 0.36Q127.30 0.36 125.21-0.68L125.21-0.68L125.21-0.68Q124.78-0.97 124.52-0.97L124.52-0.97L124.52-0.97Q123.73-0.97 122.98 0.36L122.98 0.36" fill="#ff0d0d" stroke="none" stroke-width="none" transform="translate(-67.86001586914062,9.629200943840877)" style="fill: rgb(255, 185, 0);"></path></g></g>
</g>
</g>
<style id="breath-5f8e0724-d5da-49e6-9b38-d161380cbacc" data-anikit="">@keyframes breath-5f8e0724-d5da-49e6-9b38-d161380cbacc
{
  0% {
    animation-timing-function: cubic-bezier(0.9647,0.2413,-0.0705,0.7911);
    transform: scale(0.9099999999999999);
  }
  51% {
    animation-timing-function: cubic-bezier(0.9226,0.2631,-0.0308,0.7628);
    transform: scale(1.02994);
  }
  100% {
    transform: scale(0.9099999999999999);
  }
}</style></svg>
